X:815
T: Maurice Manley's
T: Polka Mhuiris U\'i Mhaonghaile
S: B.Breathnach: "Ceol Rince na hEireann" II/117
Z: B.Black
L: 1/8
M: 2/4
R: polka
K: Ador
EA AB|cd e2|G2 G(3A/B/A/|GE ED|
EG A>B|cd ef|ge dB|1 A2 A/B/A/G/ :|2 A2 a2||
a/b/a/g/ ab|ag ef|gg/f/ ge|de/f/ g2|
ea ab|ag ed|ge dB|BA A2 :|
